local/share/icons/dracula-icons-main/22/places/folder-image.svg

<?xml version="1.0" encoding="UTF-8"?>
<svg xmlns="http://www.w3.org/2000/svg" xmlns:xlink="http://www.w3.org/1999/xlink" width="22" height="22" viewBox="0 0 22 22">
<path fill-rule="nonzero" fill="rgb(100%, 100%, 100%)" fill-opacity="1" d="M 6 4 C 4.890625 4 4 4.890625 4 6 L 4 16 C 4 17.109375 4.890625 18 6 18 L 16 18 C 17.109375 18 18 17.109375 18 16 L 18 6 C 18 4.890625 17.109375 4 16 4 Z M 6 6 L 16 6 L 16 16 L 6 16 Z M 9 9.5 L 7 14 C 7 14.554688 7.359375 15 7.800781 15 L 14.199219 15 C 14.640625 15 15 14.554688 15 14 L 13.398438 10.558594 L 11.800781 13 Z M 9 9.5 "/>
</svg>

<svg width="22" height="22" version="1.1" viewBox="0 0 22 22" xmlns="http://www.w3.org/2000/svg">
 <defs>
  <style id="current-color-scheme" type="text/css">.ColorScheme-Text { color:#FFFFFF; } .ColorScheme-Highlight { color:#5294e2; }</style>
 </defs>
 <path class="ColorScheme-Text" fill="currentColor" d="m6 4c-1.108 0-2 0.892-2 2v10c0 1.108 0.892 2 2 2h10c1.108 0 2-0.892 2-2v-10c0-1.108-0.892-2-2-2zm0 2h10v10h-10zm3 3.5-2 4.5c0 0.554 0.35758 1 0.80078 1h6.3984c0.4432 0 0.80078-0.446 0.80078-1l-1.5996-3.4395-1.5996 2.4395z"/>
</svg>
